X: 125
T:MOULINET DE PLANGUENOUAL
M:6/8
L:1/8
Q:1/4=120
Z:Yves BELOTTEAU
K:C
|g3/2 z/2 g d3/2 z/2 d|g3/2 z/2 g e5/2 z/2 |ded cBc|def e3/2 z/2 c|
g3/2 z/2 g d3/2 z/2 d|g3/2 z/2 g e5/2 z/2 |ded cBc|ded c5/2 z/2 |
g3/2 z/2 g d3/2 z/2 d|g3/2 z/2 g e5/2 z/2 |ded cBc|def e3/2 z/2 c|
g3/2 z/2 g d3/2 z/2 d|g3/2 z/2 g e5/2 z/2 |ded cBc|ded c5/2 z/2 |
ded cBc|ded cBc|ded c5/2 z/2 |d5/2 z/2 c5/2 z/2 |
ded cBc|def e3/2 z/2 d|cde dcB|cde dc5/2 z/2 |
ded cBc|def e3/2 z/2 d|cde dcB|cde dc5/2 z/2 |
ded cBc|def e3/2 z/2 d|cde dcB|cde dc5/2 z/2 |
ded cBc|def e3/2 z/2 d|cde dcB|cde dc5/2 z/2 |
d5/2 z/2 c5/2|
W:
W: From "Falaleiro" http://home.t-online.de/home/pheld/homepage.htm
